!!!COM: Palestrina, Giovanni Perluigi da
!!!OPR: Salvum me fac
!!!OTL: Sanctus
**kern	**kern	**kern	**kern	**kern
*Ibass	*Itenor	*Icalto	*Icant	*Icant
!Bassus	!Tenor	!Altus	!Cantus 2	!Cantus 1
*clefF4	*clefGv2	*clefG2	*clefG2	*clefG2
*k[b-]	*k[b-]	*k[b-]	*k[b-]	*k[b-]
*G:dor	*G:dor	*G:dor	*G:dor	*G:dor
*M4/2	*M4/2	*M4/2	*M4/2	*M4/2
=1	=1	=1	=1	=1
0r	1r	0r	0r	0g
.	[1G	.	.	.
=2	=2	=2	=2	=2
0r	1G]	0d	0r	0b-
.	2.B-	.	.	.
.	4c	.	.	.
=3	=3	=3	=3	=3
0r	1d	1f	0dd	1a
.	1B-	1g	.	[1dd
=4	=4	=4	=4	=4
0r	0A	1a	1ff	2dd]
.	.	.	.	2cc
.	.	[1a	1ee	1cc
=5	=5	=5	=5	=5
1r	0d	2a]	2.dd	2.ff
.	.	2f	.	.
.	.	.	4cc	4ee-
[1G	.	2.g	4b-	4dd
.	.	.	4a	4cc
.	.	.	2b-	[2dd
.	.	4a	.	.
=6	=6	=6	=6	=6
1G]	0r	0b-	2g	4dd]
.	.	.	.	4b-
.	.	.	1gg	1ee-
1B-	.	.	.	.
.	.	.	2ff	2dd
=7	=7	=7	=7	=7
1c	0r	1g	1ee-	2cc
.	.	.	.	2b-
1d	.	1f	[1dd	1a
=8	=8	=8	=8	=8
0r	0G	2.b-	2dd]	1.g
.	.	.	2g	.
.	.	4a	.	.
.	.	4g	2.b-	.
.	.	4f	.	.
.	.	[2g	.	[2b-
.	.	.	4cc	.
=9	=9	=9	=9	=9
0r	1B-	2g]	1dd	2b-]
.	.	1f	.	2a
.	1c	.	2.cc	1g
.	.	2e	.	.
.	.	.	4b-	.
=10	=10	=10	=10	=10
0D	1d	2.f	1a	2f
.	.	.	.	2d
.	.	4e	.	.
.	[1d	4d	1r	2f
.	.	4c	.	.
.	.	2B-	.	2g
=11	=11	=11	=11	=11
1F	2d]	1A	0r	2a
.	2c	.	.	2f
1E	1c	1G	.	1g
=12	=12	=12	=12	=12
1D	2.f	2r	0dd	2.a
.	.	2d	.	.
.	4e	.	.	4g
1r	2d	2f	.	2a
.	2G	2g	.	2b-
=13	=13	=13	=13	=13
0r	1d	2a	1ff	4f
.	.	.	.	4g
.	.	2f	.	4a
.	.	.	.	4b-
.	4c	2g	1ee	1cc
.	4d	.	.	.
.	4e	2c	.	.
.	4f	.	.	.
=14	=14	=14	=14	=14
0G	1g	0d	2dd	2.b-
.	.	.	2g	.
.	.	.	.	4a
.	1r	.	2b-	1g
.	.	.	2cc	.
=15	=15	=15	=15	=15
0B-	0d	2r	2dd	1f
.	.	2d	2.ff	.
.	.	2f	.	1r
.	.	.	4ee	.
.	.	2g	2dd	.
=16	=16	=16	=16	=16
0A	1f	0a	2cc	0r
.	.	.	1dd	.
.	1e	.	.	.
.	.	.	2cc#	.
=17	=17	=17	=17	=17
1.d	2d	2f	1dd	1a
.	1f	1d	.	.
.	.	.	2r	2b-
2c	2e	2e	2g	2cc
=18	=18	=18	=18	=18
2.B-	2d	2f	2.b-	1dd
.	2G	2.g	.	.
4A	.	.	4cc	.
4G	2.B-	.	[1dd	2r
4F	.	4a	.	.
[2G	.	[2b-	.	2g
.	4c	.	.	.
=19	=19	=19	=19	=19
2G]	2d	2b-]	2dd]	2b-
4F	2G	4a	2ee	2cc
4E	.	4g	.	.
1D	2A	2.f	2ff	1dd
.	2B-	.	2dd	.
.	.	8e	.	.
.	.	8d	.	.
=20	=20	=20	=20	=20
2C	2c	1.g	1.ee-	2r
2.E-	4B-	.	.	2g
.	4A	.	.	.
.	2G	.	.	2.b-
4D	.	.	.	.
[2BB-	[2d	4f	[2dd	.
.	.	4e-	.	4cc
=21	=21	=21	=21	=21
4BB-]	4d]	1d	4dd]	1dd
4C	4e-	.	4cc	.
4D	2f	.	2b-	.
4E-	.	.	.	.
2F	2e-	2r	2a	2cc
[2G	2d	2G	2g	[2b-
=22	=22	=22	=22	=22
4G]	4G	2.B-	0dd	4b-]
4F#	4A	.	.	4a
2G	4B-	.	.	1g
.	4G	4c	.	.
1D	1A	1d	.	.
.	.	.	.	2f#
=23	=23	=23	=23	=23
1r	2G	2B-	[0dd	0g
.	1d	2G	.	.
[1G	.	1d	.	.
.	2B-	.	.	.
=24	=24	=24	=24	=24
2G]	2d	2r	1dd]	1r
2F	2f	1a	.	.
2A	2e	.	1r	2r
[2B-	[2d	2f	.	[2dd
=25	=25	=25	=25	=25
2B-]	2d]	2g	1r	2dd]
1A	2e	1a	.	2cc
.	2c	.	2r	2ee
2F	2d	2a	[2dd	2ff
=26	=26	=26	=26	=26
2G	1e	2g	2dd]	1ee
2A	.	2e	2cc#	.
1D	2.f	[1a	2dd	2r
.	.	.	[2ff	[2dd
.	4g	.	.	.
=27	=27	=27	=27	=27
1A	2a	0a]	2ff]	2dd]
.	2A	.	2ee	2cc
2A	2r	.	2cc	2ee
4D	[2d	.	2dd	[2ff
4E	.	.	.	.
=28	=28	=28	=28	=28
4F	2d]	2r	1a	2ff]
4G	.	.	.	.
2A	2c#	1a	.	2ee
1D	2d	.	2.f	1dd
.	[2f	2d	.	.
.	.	.	4g	.
=29	=29	=29	=29	=29
0r	2f]	2f	4a	2.cc
.	.	.	4b-	.
.	2e	1g	2.cc	.
.	.	.	.	4dd
.	2c	.	.	2ee
.	.	.	4b-	.
.	2d	2f	[2a	[2ff
=30	=30	=30	=30	=30
0r	1B-	2d	4a]	4ff]
.	.	.	8g	4ee
.	.	.	8f	.
.	.	2d	2g	1dd
.	1A	2e	[1a	.
.	.	2a	.	2cc#
=31	=31	=31	=31	=31
2r	0d	2f	2a]	2.dd
1G	.	1g	2d	.
.	.	.	.	4cc
.	.	.	[1dd	2b-
2F#	.	2a	.	2a
=32	=32	=32	=32	=32
2G	2r	2g	1dd]	2.b-
1B-	1d	4f	.	.
.	.	4e	.	4a
.	.	2d	1r	4f
.	.	.	.	4g
2A	2c#	2e	.	[2a
=33	=33	=33	=33	=33
2F	1d	2f	2r	2a]
2G	.	2d	1dd	2b-
1E	2G	2r	.	1g
.	2G	[2g	2cc#	.
=34	=34	=34	=34	=34
1D	2A	2g]	2dd	0r
.	2A	2f	2ff	.
2.G	1G	2g	2ee	.
.	.	[2b-	[2dd	.
4A	.	.	.	.
=35	=35	=35	=35	=35
2B-	0r	2b-]	2dd]	1r
2c	.	2a	4cc	.
.	.	.	4b-	.
2d	.	2f	2a	2r
2G	.	2g	2b-	[2dd
=36	=36	=36	=36	=36
0r	2r	1e	1g	2dd]
.	1g	.	.	2cc#
.	.	1d	1a	1dd
.	2f#	.	.	.
=37	=37	=37	=37	=37
0r	2g	0r	2r	1b-
.	1e-	.	1g	.
.	.	.	.	2cc
.	2d	.	2f#	[2dd
=38	=38	=38	=38	=38
0r	2B-	2r	1g	2dd]
.	2c	1g	.	2ee-
.	1A	.	2a	2.cc
.	.	2f#	2a	.
.	.	.	.	4dd
=39	=39	=39	=39	=39
2r	1G	2g	2.b-	2ee-
1G	.	1b-	.	2dd
.	.	.	4cc	.
.	1r	.	[1dd	2g
2F#	.	2a	.	2a
=40	=40	=40	=40	=40
2G	2r	2g	1dd]	2.b-
1B-	1d	4f	.	.
.	.	4e	.	8a
.	.	.	.	8g
.	.	2d	1r	4f
.	.	.	.	4g
[2A	2c	2e	.	4a
.	.	.	.	4b-
=41	=41	=41	=41	=41
2A]	2e	1A	2r	2cc
2F	1f	.	1dd	2a
2G	.	2r	.	2b-
[2A	2e	[2a	2cc	2a
=42	=42	=42	=42	=42
2A]	2c	2a]	2ee	2r
1D	2d	2f	1ff	1dd
.	1A	2a	.	.
2A	.	[2cc	2ee	2cc
=43	=43	=43	=43	=43
2F	2r	2cc]	1dd	2a
2G	1G	2b-	.	2b-
2E	.	2g	2ee	2cc
2D	2F	[2a	[2ff	2dd
=44	=44	=44	=44	=44
2F	2A	2a]	2ff]	2cc
2G	2B-	2g	2.dd	2b-
[1D	2A	2.f	.	[1dd
.	.	.	4cc	.
.	[2d	.	2b-	.
.	.	4e-	.	.
=45	=45	=45	=45	=45
0D]	4d]	0d	2a	1dd]
.	4c	.	.	.
.	2B-	.	1g	.
.	1A	.	.	1dd
.	.	.	2f#	.
=46	=46	=46	=46	=46
[0G	[0G	[0d	[0g	[0b
=47	=47	=47	=47	=47
0G]	0G]	0d]	0g]	0b]
*	*	*	*	*-
!! Pleni
*Ibass	*Icalto	*Icant	*Icant
!Bassus	!Altus	!Cantus 2	!Cantus 1
*clefF4	*clefG2	*clefG2	*clefG2
*k[b-]	*k[b-]	*k[b-]	*k[b-]
*G:dor	*G:dor	*G:dor	*G:dor
*M4/2	*M4/2	*M4/2	*M4/2
=48	=48	=48	=48
0r	0r	0r	1dd
.	.	.	2dd
.	.	.	2ff
=49	=49	=49	=49
0r	1r	0r	2ee
.	.	.	2dd
.	1g	.	2.gg
.	.	.	4ff
=50	=50	=50	=50
0r	2g	0r	2ee-
.	2b-	.	2dd
.	2a	.	2cc
.	2g	.	2b-
=51	=51	=51	=51
0r	1cc	0r	1a
.	2.b-	.	2.g
.	4a	.	4a
=52	=52	=52	=52
0r	2g	1dd	4b-
.	.	.	4g
.	2f	.	2a
.	2g	2dd	2b-
.	[2a	2ff	[2cc
=53	=53	=53	=53
0r	4a]	2ee	2cc]
.	4g	.	.
.	2f	2dd	1dd
.	1e	1gg	.
.	.	.	2cc#
=54	=54	=54	=54
0r	2d	2.ff	2.dd
.	4B-	.	.
.	4c	4ee-	4cc
.	4d	2dd	2b-
.	4e	.	.
.	2f	2cc	2a
=55	=55	=55	=55
1G	2d	2.b-	4g
.	.	.	4a
.	2.g	.	4b-
.	.	4a	4cc
2G	.	4b-	1dd
.	4f	4cc	.
2B-	4d	2dd	.
.	4e	.	.
=56	=56	=56	=56
2A	2f	2cc	1r
2G	1g	2b-	.
2.d	.	1a	2r
.	[2f	.	2dd
4c	.	.	.
=57	=57	=57	=57
2.B-	4f]	1.b-	2dd
.	4e	.	.
.	4d	.	2ff
4A	4c	.	.
2G	4B-	.	2ee
.	4c	.	.
2F	[2d	2a	2dd
=58	=58	=58	=58
1E	2d]	1g	1gg
.	2c#	.	.
2.D	1d	2r	[1ff
.	.	2a	.
4E	.	.	.
=59	=59	=59	=59
4F	1A	2a	2ff]
4G	.	.	.
2A	.	2cc	2ee
2B-	1r	2b-	2dd
2F	.	2a	2cc
=60	=60	=60	=60
2.G	0r	2.dd	2.b-
4A	.	4cc	4a
4B-	.	2b-	2g
4c	.	.	.
2d	.	2a	2f
=61	=61	=61	=61
1G	1d	4g	4b-
.	.	4a	4cc
.	.	4b-	4dd
.	.	4g	4ee
1D	2d	4a	2ff
.	.	4g	.
.	2f	4a	2dd
.	.	4b	.
=62	=62	=62	=62
0r	2e	2cc	2ee
.	2d	1dd	2ff
.	2.a	.	1ee
.	.	2cc#	.
.	4g	.	.
=63	=63	=63	=63
1D	2.f	1dd	2dd
.	.	.	4d
.	4e	.	4e
2D	2d	1r	4f
.	.	.	4g
2F	4c	.	4a
.	4d	.	4b
=64	=64	=64	=64
2E	4e	0r	2cc
.	4c	.	.
2D	2f	.	1dd
1A	1e	.	.
.	.	.	2cc#
=65	=65	=65	=65
2.B-	1d	2r	2dd
.	.	2ff	1b-
4c	.	.	.
[1d	2r	2dd	.
.	2f	[2ff	4a
.	.	.	4g
=66	=66	=66	=66
1d]	2d	4ff]	0a
.	.	4ee	.
.	1f	1dd	.
1A	.	.	.
.	2e	2cc	.
=67	=67	=67	=67
0r	2.d	2b-	2r
.	.	2a	2ff
.	4c	.	.
.	4B-	2b-	2dd
.	4c	.	.
.	4d	4a	[2ff
.	4e	4g	.
=68	=68	=68	=68
0r	2f	2a	4ff]
.	.	.	4ee
.	2g	1b-	1dd
.	1e-	.	.
.	.	4a	2cc
.	.	4g	.
=69	=69	=69	=69
2r	1d	1f	0dd
2B-	.	.	.
2G	2r	2.b-	.
[2B-	2f	.	.
.	.	4cc	.
=70	=70	=70	=70
4B-]	2d	0dd	1b-
4A	.	.	.
1G	1b-	.	.
.	.	.	2g
2F#	2a	.	2a
=71	=71	=71	=71
1G	1g	1dd	1b-
1D	2f	2r	1a
.	[2d	2ff	.
=72	=72	=72	=72
2r	2d]	2dd	[0a
2F	2c	2.ff	.
2D	2.f	.	.
.	.	4ee	.
[2F	.	2dd	.
.	4g	.	.
=73	=73	=73	=73
4F]	2a	2cc	1a_
4E	.	.	.
1D	1f	4dd	.
.	.	4ee	.
.	.	4ff	1a_
.	.	4dd	.
2C#	2e	2ee	.
=74	=74	=74	=74
2.D	2r	2ff	0a]
.	2f	1dd	.
4E	.	.	.
4F	2d	.	.
4G	.	.	.
4A	2f	4cc	.
4B-	.	4b-	.
=75	=75	=75	=75
4c	2e	[0a	0r
4A	.	.	.
1d	2d	.	.
.	1e	.	.
2c#	.	.	.
=76	=76	=76	=76
1d	2.d	0a]	2r
.	.	.	2ff
.	4e	.	.
1D	2f	.	2dd
.	2d	.	[2ff
=77	=77	=77	=77
0D	1a	2r	4ff]
.	.	.	4ee-
.	.	2ff	4dd
.	.	.	4cc
.	1r	2dd	2b-
.	.	[2ff	2a
=78	=78	=78	=78
0r	2r	4ff]	2.b-
.	.	4ee-	.
.	2b-	4dd	.
.	.	4cc	4cc
.	2g	4b-	1dd
.	.	4a	.
.	[2b-	2g	.
=79	=79	=79	=79
0r	4b-]	2.dd	4g
.	4a	.	4a
.	1g	.	4b-
.	.	4cc	4cc
.	.	2b-	2.dd
.	2f#	[2a	.
.	.	.	4cc
=80	=80	=80	=80
0r	1g	4a]	2b-
.	.	4g	.
.	.	1g	4a
.	.	.	4g
.	1d	.	1a
.	.	2f#	.
=81	=81	=81	=81
1E-	0G	0g	1g
2C	.	.	2r
[2E-	.	.	2b-
=82	=82	=82	=82
4E-]	2r	1ee-	2g
4D	.	.	.
1C	2g	.	1ee-
.	2g	2cc	.
2BB	2g	2dd	2dd
=83	=83	=83	=83
0C	0g	0ee-	0cc
=84	=84	=84	=84
[0G	[0g	[0dd	[0b
=85	=85	=85	=85
0G]	0g]	0dd]	0b]
*-	*-	*-	*-
!! Hosanna
**kern	**kern	**kern	**kern	**kern
*Ibass	*Itenor	*Icalto	*Icant	*Icant
!Bassus	!Tenor	!Altus	!Cantus 2	!Cantus 1
*clefF4	*clefGv2	*clefG2	*clefG2	*clefG2
*k[b-]	*k[b-]	*k[b-]	*k[b-]	*k[b-]
*G:dor	*G:dor	*G:dor	*G:dor	*G:dor
*M4/2	*M4/2	*M4/2	*M4/2	*M4/2
=86	=86	=86	=86	=86
0r	0G	1r	0r	0r
.	.	[1d	.	.
=87	=87	=87	=87	=87
0r	1.d	1d]	0r	0r
.	.	[1a	.	.
.	2c	.	.	.
=88	=88	=88	=88	=88
0r	2d	2a]	0r	0r
.	2e	2g	.	.
.	2.f	2a	.	.
.	.	2a	.	.
.	4e-	.	.	.
=89	=89	=89	=89	=89
0r	2d	2.b-	0r	0r
.	2c	.	.	.
.	.	4a	.	.
.	2B-	2g	.	.
.	2d	2f	.	.
=90	=90	=90	=90	=90
0r	2c	2e-	0r	0g
.	2B-	2d	.	.
.	1e-	1c	.	.
=91	=91	=91	=91	=91
0r	2.d	4B-	0r	1.dd
.	.	4c	.	.
.	.	4d	.	.
.	4c	4e	.	.
.	2B-	4f	.	.
.	.	4g	.	.
.	2A	4a	.	2cc
.	.	4f	.	.
=92	=92	=92	=92	=92
0r	1G	1b-	0r	2dd
.	.	.	.	2ee
.	2.d	2a	.	2.ff
.	.	[2f	.	.
.	4c	.	.	4ee-
=93	=93	=93	=93	=93
0r	2B-	2f]	0g	2dd
.	2c	2e-	.	2cc
.	1G	2d	.	2.b-
.	.	[2b-	.	.
.	.	.	.	4a
=94	=94	=94	=94	=94
0r	0r	2b-]	1.dd	2g
.	.	2a	.	2f
.	.	2b-	.	2g
.	.	2a	2cc	2a
=95	=95	=95	=95	=95
1r	1G	1g	2dd	1b-
.	.	.	2ee	.
[1D	2.d	4f	2.ff	1a
.	.	4e-	.	.
.	.	4d	.	.
.	4c	4e-	4ee-	.
=96	=96	=96	=96	=96
1D]	2B-	4f	2dd	2.ff
.	.	4g	.	.
.	2A	4a	2cc	.
.	.	4f	.	4ee-
[1G	2B-	1g	2b-	2dd
.	2c	.	2a	2cc
=97	=97	=97	=97	=97
2G]	2d	0r	2g	4b-
.	.	.	.	4cc
2F	2f	.	2a	1dd
2G	1e	.	2b-	.
2A	.	.	4a	2cc#
.	.	.	4g	.
=98	=98	=98	=98	=98
2.B-	2d	0d	2f	1dd
.	1G	.	2g	.
4A	.	.	.	.
2G	.	.	2b-	1r
2F	[2d	.	2a	.
=99	=99	=99	=99	=99
1E	2d]	1g	0r	1g
.	2c	.	.	.
1D	2d	2f	.	[1dd
.	2e	2g	.	.
=100	=100	=100	=100	=100
0r	2.f	1a	1r	2dd]
.	.	.	.	2cc
.	4e	.	.	.
.	2d	2b-	2r	2dd
.	2c	[2a	2a	2ee
=101	=101	=101	=101	=101
0r	1B-	4a]	1.dd	2ff
.	.	4g	.	.
.	.	4g	.	2dd
.	.	4f	.	.
.	1A	1a	.	2ee
.	.	.	2cc	2a
=102	=102	=102	=102	=102
0r	0r	1r	2dd	2b-
.	.	.	2ee	2g
.	.	[1d	2.ff	1a
.	.	.	4ee	.
=103	=103	=103	=103	=103
0r	0G	1d]	2dd	2b
.	.	.	2cc	2cc
.	.	[1g	1b	2.dd
.	.	.	.	8cc
.	.	.	.	8dd
=104	=104	=104	=104	=104
0C	1.c	2g]	2cc	2ee-
.	.	2f	2dd	2dd
.	.	2g	1ee-	1cc
.	2c	2a	.	.
=105	=105	=105	=105	=105
1.G	2.d	1b-	1dd	2r
.	.	.	.	2g
.	4c	.	.	.
.	2B-	2g	1r	1dd
2F	2A	2a	.	.
=106	=106	=106	=106	=106
2G	2G	2b-	0r	0dd
2A	2F	2a	.	.
2.B-	2.G	2.g	.	.
4A	4A	4f	.	.
=107	=107	=107	=107	=107
2G	2B-	2e-	1r	0r
2F	2A	2d	.	.
2.E-	1G	2c	[1g	.
.	.	2B-	.	.
4D	.	.	.	.
=108	=108	=108	=108	=108
1C	2.c	1e-	1g]	2r
.	.	.	.	2g
.	4B-	.	.	.
1D	4A	1d	[1dd	2g
.	4G	.	.	.
.	2A	.	.	2f
=109	=109	=109	=109	=109
0r	2B-	1r	2dd]	2g
.	2A	.	2cc	2a
.	1G	2r	2dd	2.b-
.	.	2g	2ee	.
.	.	.	.	4cc
=110	=110	=110	=110	=110
0r	1d	2a	2ff	4dd
.	.	.	.	4ee
.	.	2f	1dd	4ff
.	.	.	.	4dd
.	1r	2g	.	1ee-
.	.	2a	2cc	.
=111	=111	=111	=111	=111
1G	0r	4b-	1dd	2dd
.	.	4a	.	.
.	.	4g	.	2b-
.	.	4f	.	.
2A	.	4e	2r	2cc
.	.	8d	.	.
.	.	8e	.	.
2F	.	2f	2a	[2dd
=112	=112	=112	=112	=112
2G	1r	1e	2b-	2dd]
2A	.	.	1a	2cc#
1B-	2r	1d	.	1dd
.	2d	.	2g	.
=113	=113	=113	=113	=113
1A	2e	2r	1a	2r
.	2c	2e	.	2a
1r	2d	2f	1r	2a
.	2e	2e	.	2g
=114	=114	=114	=114	=114
1r	2f	2d	0r	1a
.	2e	2c	.	.
1G	1d	2.g	.	1b
.	.	4f	.	.
=115	=115	=115	=115	=115
1A	1c	4e	2r	2.cc
.	.	4d	.	.
.	.	2e	2cc	.
.	.	.	.	4b-
2F	1r	2f	2dd	2a
2G	.	2d	2b-	[2g
=116	=116	=116	=116	=116
2A	1r	2r	2cc	2g]
2B-	.	2d	2dd	2f
1E-	2r	2.g	2.ee-	1b-
.	2G	.	.	.
.	.	4f	4dd	.
=117	=117	=117	=117	=117
0r	2A	4e	2cc	2a
.	.	4c	.	.
.	2B-	1g	2b-	2dd
.	2c	.	1a	2cc
.	2d	2f#	.	2a
=118	=118	=118	=118	=118
1G	4B-	1g	1g	1b-
.	4c	.	.	.
.	4d	.	.	.
.	4e	.	.	.
2A	1f	2r	2r	1a
2F	.	2a	[2dd	.
=119	=119	=119	=119	=119
2G	1e	2b-	2dd]	1r
2A	.	4a	2cc#	.
.	.	4g	.	.
2.B-	2r	2f	2.dd	2r
.	2d	[2B-	.	2f
4A	.	.	4cc	.
=120	=120	=120	=120	=120
1G	2d	4B-]	1b-	2g
.	.	4c	.	.
.	2B-	4d	.	2g
.	.	4e	.	.
1F	2c	1f	2a	2a
.	2d	.	2f	2a
=121	=121	=121	=121	=121
1C	2.e-	2r	1g	2.cc
.	.	2g	.	.
.	4d	.	.	4b-
2F	2c	4f	2r	2a
.	.	4e-	.	.
2G	2B-	4d	[2dd	[2g
.	.	4c	.	.
=122	=122	=122	=122	=122
0D	0A	1d	2dd]	2g]
.	.	.	2dd	4f
.	.	.	.	4e
.	.	1d	1dd	1f#
=123	=123	=123	=123	=123
[0G	[0G	[0d	[0b	[0g
=124	=124	=124	=124	=124
0G]	0G]	0d]	0b]	0g]
==	==	==	==	==
*-	*-	*-	*-	*-
!!!CDT: 1525/^1526/-1594/2/2
!!!OCY: Italia
!!!AGN: Mass (Parody)
!!!AST: renaissance, vocal
!!!ASW: Motet 1538 (Jacquet)
!!!PWK: Masses, Book 2
!!!RNB: Cadence finals: D
!!!YOR: Le Opere Complete, v. 4, p. 126
!!!YOO: Rome, Italy: Fratelli Scalera
!!!END: 1992//
!!!EED: John Miller
!!!YEC: Copyright 2000, John Miller
!!!YEN: United States of America
!!!YEM: Rights to all derivative electronic formats reserved.
!!!YEM: Refer to licensing agreement for further details.
!!!YEM: This file must be accompanied by the licensing agreement.
!!!YEM: A copy of the licensing agreement may be found at http://www.music-cog.ohio-state.edu/HumdrumDatabases/Palestrina/license.txt
!!!EMD: converted to Humdrum by Bret Aarden
